communes/211.svg

<?xml version="1.0" encoding="UTF-8" standalone="no"?>
<svg
   xmlns:dc="http://purl.org/dc/elements/1.1/"
   xmlns:cc="http://creativecommons.org/ns#"
   xmlns:rdf="http://www.w3.org/1999/02/22-rdf-syntax-ns#"
   xmlns:svg="http://www.w3.org/2000/svg"
   xmlns="http://www.w3.org/2000/svg"
   xmlns:xlink="http://www.w3.org/1999/xlink"
   xmlns:sodipodi="http://sodipodi.sourceforge.net/DTD/sodipodi-0.dtd"
   xmlns:inkscape="http://www.inkscape.org/namespaces/inkscape"
   version="1.0"
   width="214.63611"
   height="251.41275"
   id="svg2780"
   sodipodi:docname="211.svg">
  <metadata
     id="metadata12">
    <rdf:RDF>
      <cc:Work
         rdf:about="">
        <dc:format>image/svg+xml</dc:format>
        <dc:type
           rdf:resource="http://purl.org/dc/dcmitype/StillImage" />
      </cc:Work>
    </rdf:RDF>
  </metadata>
  <sodipodi:namedview
     pagecolor="#ffffff"
     bordercolor="#666666"
     borderopacity="1"
     objecttolerance="10"
     gridtolerance="10"
     guidetolerance="10"
     inkscape:pageopacity="0"
     inkscape:pageshadow="2"
     inkscape:window-width="640"
     inkscape:window-height="480"
     id="namedview10" />
  <defs
     id="defs2782" />
  <g
     transform="translate(-16.716535,-803.33066)"
     id="layer1">
    <path
       d="M 17.716535,804.33066 L 21.582638,966.73896 C 24.344136,1082.7449 223.72503,1082.7449 226.48654,966.73896 L 230.35265,804.33066 L 17.716535,804.33066 z"
       id="path3282"
       style="fill:#ffffff;fill-opacity:1;fill-rule:evenodd;stroke:#000000;stroke-width:2;stroke-linecap:butt;stroke-miterlimit:4;stroke-dashoffset:0;stroke-opacity:1" />
    <g
       transform="translate(-0.5778604,0)"
       id="g3252">
      <path
         d="M 111.49731,87.31706 C 108.99212,67.808096 112.16009,44.528778 121.44449,23.471404 C 121.92409,22.383663 121.8275,21.000573 120.30719,20.046961 C 118.03071,18.619048 114.70757,16.414621 111.43933,17.716534 C 86.452244,27.670196 92.501415,77.383085 92.641947,83.445531 C 81.838875,68.558741 78.440097,40.370396 81.170804,21.351736 C 81.284948,20.55675 79.565402,20.230158 78.801764,20.478932 C 41.418015,32.657615 69.895403,74.535886 80.275087,103.13926 C 62.018694,88.061422 49.172555,64.005791 42.393354,47.41118 C 41.99701,46.440982 39.691578,46.597179 38.902137,47.286494 C 11.897429,70.86614 69.551547,119.17685 76.736968,120.63446 C 63.36278,117.31509 41.164445,104.84277 31.670329,95.789479 C 31.101839,95.247384 29.712626,95.100498 29.238946,95.727136 C 12.200132,118.26802 48.012096,129.2833 69.512632,138.80626 C 49.31173,139.37867 35.950303,137.34734 29.425975,134.8163 C 28.420065,134.42607 26.677433,135.76026 26.433503,136.81128 C 20.771925,161.26754 59.307107,157.59153 79.051137,157.38453 C 56.136442,173.11375 48.572305,171.79386 39.151509,171.84814 C 38.216376,171.85353 36.749084,172.78776 36.657783,173.71844 C 34.515145,195.55957 60.028382,196.517 88.028553,171.72346 C 75.990992,195.28651 64.037046,200.93146 56.48291,206.76032 C 53.917081,208.74014 53.784857,210.86363 54.674959,212.24652 C 65.615639,229.24427 92.911016,202.34512 96.133165,191.29921 C 92.783616,202.39475 91.616005,230.31496 110.32477,230.6387 C 112.09575,230.66955 109.44851,218.10773 112.88084,186.4374 L 82.916413,160.50169 L 111.49731,87.31706 z"
         transform="translate(0,804.33069)"
         id="path3250"
         style="opacity:1;fill:#000000;fill-opacity:1;fill-rule:evenodd;stroke:#ffffff;stroke-width:1px;stroke-linecap:butt;stroke-linejoin:miter;marker:none;marker-start:none;marker-mid:none;marker-end:none;stroke-miterlimit:4;stroke-dasharray:none;stroke-dashoffset:0;stroke-opacity:1;visibility:visible;display:inline;overflow:visible;enable-background:accumulate" />
      <path
         d="M 92.641947,163.1201 C 99.689497,153.91195 98.694208,144.56271 96.382538,135.19036 C 108.74162,140.23638 118.51654,133.18569 119.20383,125.15506 C 119.94832,116.45629 113.27863,102.34191 111.46958,87.086439 C 107.34393,83.121062 101.52662,77.551692 100.99593,89.181102 C 97.301486,83.26261 91.906705,80.681324 91.395084,92.921693 C 84.412431,85.334412 81.511035,91.354818 82.542354,98.78195 C 77.684691,97.739466 73.610404,97.832876 75.310547,106.29921 C 70.001347,106.4482 65.193191,110.0484 70.866142,117.85896 C 63.355891,116.2766 60.082493,120.43997 67.330621,128.08324 C 61.639049,127.44495 57.149254,131.45184 65.709699,137.80877 C 60.544581,138.21128 54.413786,142.87559 65.460326,148.28243 C 58.26808,152.3826 57.479133,158.01416 68.452798,159.00545 C 63.772046,162.25996 60.350888,168.46947 72.81682,167.98287 C 68.288172,172.82886 66.540097,179.48804 76.55741,178.45652 C 75.179681,183.19674 75.765844,188.67446 82.791727,186.31176 C 82.783848,189.93711 82.682146,199.81521 92.766634,191.29921 C 91.874518,201.44996 96.566564,200.38807 101.99342,193.79294 C 105.60081,198.53731 108.50315,197.74945 112.09302,190.92515 C 114.73181,185.90885 111.3449,163.66041 92.641947,163.1201 z"
         transform="translate(0,804.33069)"
         id="path2476"
         style="opacity:1;fill:#000000;fill-opacity:1;fill-rule:evenodd;stroke:#ffffff;stroke-width:1px;stroke-linecap:butt;stroke-linejoin:miter;marker:none;marker-start:none;marker-mid:none;marker-end:none;stroke-miterlimit:4;stroke-dasharray:none;stroke-dashoffset:0;stroke-opacity:1;visibility:visible;display:inline;overflow:visible;enable-background:accumulate" />
    </g>
    <use
       transform="matrix(-1,0,0,1,248.06918,0)"
       id="use3256"
       x="0"
       y="0"
       width="248.03149"
       height="248.03149"
       xlink:href="#g3252" />
  </g>
</svg>

<?xml version="1.0" encoding="UTF-8"?>
<svg version="1.0" viewBox="0 0 214.64 251.41" xmlns="http://www.w3.org/2000/svg" xmlns:cc="http://creativecommons.org/ns#" xmlns:dc="http://purl.org/dc/elements/1.1/" xmlns:rdf="http://www.w3.org/1999/02/22-rdf-syntax-ns#" xmlns:xlink="http://www.w3.org/1999/xlink">
<metadata>
<rdf:RDF>
<cc:Work rdf:about="">
<dc:format>image/svg+xml</dc:format>
<dc:type rdf:resource="http://purl.org/dc/dcmitype/StillImage"/>
</cc:Work>
</rdf:RDF>
</metadata>
<g transform="translate(-16.717 -803.33)">
<path d="m17.717 804.33 3.8661 162.41c2.7615 116.01 202.14 116.01 204.9 0l3.8661-162.41h-212.64z" fill="#fff" fill-rule="evenodd" stroke="#000" stroke-width="2"/>
<g id="a" transform="translate(-.57786)">
<path transform="translate(0 804.33)" d="m111.5 87.317c-2.5052-19.509 0.66278-42.788 9.9472-63.846 0.4796-1.0877 0.38301-2.4708-1.1373-3.4244-2.2765-1.4279-5.5996-3.6323-8.8679-2.3304-24.987 9.9537-18.938 59.667-18.797 65.729-10.803-14.887-14.202-43.075-11.471-62.094 0.11414-0.79499-1.6054-1.1216-2.369-0.8728-37.384 12.179-8.9064 54.057 1.4733 82.66-18.256-15.078-31.103-39.133-37.882-55.728-0.39634-0.9702-2.7018-0.814-3.4912-0.12469-27.005 23.58 30.649 71.89 37.835 73.348-13.374-3.3194-35.573-15.792-45.067-24.845-0.56849-0.5421-1.9577-0.68898-2.4314-0.062343-17.039 22.541 18.773 33.556 40.274 43.079-20.201 0.57241-33.562-1.4589-40.087-3.99-1.0059-0.39023-2.7485 0.94396-2.9925 1.995-5.6616 24.456 32.874 20.78 52.618 20.573-22.915 15.729-30.479 14.409-39.9 14.464-0.93513 0.00539-2.4024 0.93962-2.4937 1.8703-2.1426 21.841 23.371 22.799 51.371-1.995-12.038 23.563-23.992 29.208-31.546 35.037-2.5658 1.9798-2.6981 4.1033-1.808 5.4862 10.941 16.998 38.236-9.9014 41.458-20.947-3.3495 11.096-4.5172 39.016 14.192 39.339 1.771 0.03085-0.87626-12.531 2.5561-44.201l-29.964-25.936 28.581-73.185z" fill-rule="evenodd" stroke="#fff" stroke-width="1px"/>
<path transform="translate(0 804.33)" d="m92.642 163.12c7.0476-9.2082 6.0523-18.557 3.7406-27.93 12.359 5.046 22.134-2.0047 22.821-10.035 0.74449-8.6988-5.9252-22.813-7.7342-38.069-4.1256-3.9654-9.943-9.5347-10.474 2.0947-3.6944-5.9185-9.0892-8.4998-9.6008 3.7406-6.9827-7.5873-9.884-1.5669-8.8527 5.8603-4.8577-1.0425-8.932-0.94907-7.2318 7.5173-5.3092 0.14899-10.117 3.7492-4.4444 11.56-7.5103-1.5824-10.784 2.581-3.5355 10.224-5.6916-0.63829-10.181 3.3686-1.6209 9.7255-5.1651 0.40251-11.296 5.0668-0.24937 10.474-7.1922 4.1002-7.9812 9.7317 2.9925 10.723-4.6808 3.2545-8.1019 9.464 4.364 8.9774-4.5286 4.846-6.2767 11.505 3.7406 10.474-1.3777 4.7402-0.79157 10.218 6.2343 7.8552-0.007879 3.6254-0.10958 13.503 9.9749 4.9874-0.89212 10.151 3.7999 9.0889 9.2268 2.4937 3.6074 4.7444 6.5097 3.9565 10.1-2.8678 2.6388-5.0163-0.74812-27.265-19.451-27.805z" fill-rule="evenodd" stroke="#fff" stroke-width="1px"/>
</g>
<use transform="matrix(-1 0 0 1 248.07 0)" width="248.03149" height="248.03149" xlink:href="#a"/>
</g>
</svg>
